src/topics/icons/laravel.svg

<svg height="256" preserveAspectRatio="xMidYMid" viewBox="0 0 256 256" width="256" xmlns="http://www.w3.org/2000/svg"><g fill="#f35045"><path d="m160.444667 208c2 2.888667 3.222 2.666667 4.777333 2s81.556-27.666667 84-28.555333c2.444-.888667 1.666667-1.666667.889333-2.889334-.777333-1.222666-27.444666-37.444-28.778-39.555333-1.333333-2.111333-2-1.666667-4.111333-1l-84.805333 22.066667s26.028 45.044666 28.028 47.933333z"/><path d="m256 171.115333v-42.398666c-9.541333 2.542666-21.608667 5.756-26.372667 7.023333 7.186667 9.616 18.422667 24.664667 26.372667 35.375333z"/><path d="m229.545333 83.5213333c-1.307333.2966667-30.247333 5.5266667-32.03 5.764-1.782666.2373334-1.188666 1.248-.475333 2.258l25.467333 34.9426667s31.138667-7.725333 33.040667-8.141333c.154-.034.304667-.07.452-.106667v-4.626667c-5.66-7.177333-21.080667-26.7179997-22.413333-28.5439997-1.604-2.1993333-2.734-1.8426666-4.041334-1.546z"/><path d="m47.456 28.634c6.2666667-.2846667 6.8386667 1.1413333 9.592 5.224l69.170667 115.642 86.973333-20.835333c-4.818667-6.830667-26.695333-37.8460003-28.809333-40.8053337-2.376667-3.328.059333-4.8733333 3.922-5.5266666 3.862666-.6533334 37.14-6.2393334 39.992666-6.6553334 2.852667-.416 5.111334-1.426 9.746 4.16 2.371334 2.858 10.412 12.87 17.956667 22.2546667v-54.092c0-13.222-4.694667-24.528-14.083333-33.9166667-9.388667-9.38866663-20.694667-14.0833333-33.916667-14.0833333h-160c-13.222 0-24.528 4.69466667-33.9166667 14.0833333-5.3853333 5.3853334-9.21799997 11.404-11.51466663 18.0506667 15.67800003-1.288 40.50133333-3.3006667 44.88733333-3.5z"/><path d="m168.288667 223.564c-7.334 2.222-10.622667 3.324667-15.4-3.342-3.578-4.993333-22.926667-39.843333-32.414-57.023333-17.954667 4.702666-50.8140003 13.278666-60.2893337 15.555333-9.2486666 2.222-13.198-3.322667-14.7173333-6.740667-1.0653333-2.396666-28.1786667-60.854-45.468-98.3626663v134.3493333c0 13.222667 4.69466667 24.527333 14.0833333 33.916667 9.3886667 9.388666 20.6946667 14.083333 33.9166667 14.083333h160c13.222 0 24.528-4.694667 33.916667-14.083333 9.388666-9.389334 14.083333-20.694 14.083333-33.916667v-15.781333c-19.640667 7.184-82.77 29.848-87.711333 31.345333z"/><path d="m60.412 165.288c2.5993333-.594667 51.312667-12.253333 52.352667-12.476s1.708-.817333.594-2.747333-64.9333337-112.0893337-64.9333337-112.0893337c-.5893333-1.0113333-.4213333-1.348-2.022-1.264-1.4273333.0753334-37.53799997 3.2973334-45.89866663 3.996-.24666667 1.7386667-.39533334 3.5173334-.46066667 5.3306667 8.48733333 17.3746667 57.1986667 117.836667 57.472 118.655333.2973333.891334.2966667 1.188667 2.896.594667z"/></g></svg>

<?xml version="1.0" encoding="UTF-8" standalone="no" ?>
<svg width="256px" height="256px" viewBox="0 0 256 256" version="1.1" xmlns="http://www.w3.org/2000/svg" xmlns:xlink="http://www.w3.org/1999/xlink" preserveAspectRatio="xMidYMid">
    <g fill="#F35045">
        <path d="M160.444667,208 C162.444667,210.888667 163.666667,210.666667 165.222,210 C166.777333,209.333333 246.778,182.333333 249.222,181.444667 C251.666,180.556 250.888667,179.778 250.111333,178.555333 C249.334,177.332667 222.666667,141.111333 221.333333,139 C220,136.888667 219.333333,137.333333 217.222,138 L132.416667,160.066667 C132.416667,160.066667 158.444667,205.111333 160.444667,208 L160.444667,208 Z"></path>
        <path d="M256,171.115333 L256,128.716667 C246.458667,131.259333 234.391333,134.472667 229.627333,135.74 C236.814,145.356 248.05,160.404667 256,171.115333 L256,171.115333 Z"></path>
        <path d="M229.545333,83.5213333 C228.238,83.818 199.298,89.048 197.515333,89.2853333 C195.732667,89.5226667 196.326667,90.5333333 197.04,91.5433333 L222.507333,126.486 C222.507333,126.486 253.646,118.760667 255.548,118.344667 C255.702,118.310667 255.852667,118.274667 256,118.238 L256,113.611333 C250.34,106.434 234.919333,86.8933333 233.586667,85.0673333 C231.982667,82.868 230.852667,83.2246667 229.545333,83.5213333 L229.545333,83.5213333 Z"></path>
        <path d="M47.456,28.634 C53.7226667,28.3493333 54.2946667,29.7753333 57.048,33.858 L126.218667,149.5 L213.192,128.664667 C208.373333,121.834 186.496667,90.8186667 184.382667,87.8593333 C182.006,84.5313333 184.442,82.986 188.304667,82.3326667 C192.167333,81.6793333 225.444667,76.0933333 228.297333,75.6773333 C231.15,75.2613333 233.408667,74.2513333 238.043333,79.8373333 C240.414667,82.6953333 248.455333,92.7073333 256,102.092 L256,48 C256,34.778 251.305333,23.472 241.916667,14.0833333 C232.528,4.69466667 221.222,0 208,0 L48,0 C34.778,0 23.472,4.69466667 14.0833333,14.0833333 C8.698,19.4686667 4.86533333,25.4873333 2.56866667,32.134 C18.2466667,30.846 43.07,28.8333333 47.456,28.634 L47.456,28.634 Z"></path>
        <path d="M168.288667,223.564 C160.954667,225.786 157.666,226.888667 152.888667,220.222 C149.310667,215.228667 129.962,180.378667 120.474667,163.198667 C102.52,167.901333 69.6606667,176.477333 60.1853333,178.754 C50.9366667,180.976 46.9873333,175.431333 45.468,172.013333 C44.4026667,169.616667 17.2893333,111.159333 0,73.6506667 L0,208 C0,221.222667 4.69466667,232.527333 14.0833333,241.916667 C23.472,251.305333 34.778,256 48,256 L208,256 C221.222,256 232.528,251.305333 241.916667,241.916667 C251.305333,232.527333 256,221.222667 256,208 L256,192.218667 C236.359333,199.402667 173.23,222.066667 168.288667,223.564 L168.288667,223.564 Z"></path>
        <path d="M60.412,165.288 C63.0113333,164.693333 111.724667,153.034667 112.764667,152.812 C113.804667,152.589333 114.472667,151.994667 113.358667,150.064667 C112.244667,148.134667 48.4253333,37.9753333 48.4253333,37.9753333 C47.836,36.964 48.004,36.6273333 46.4033333,36.7113333 C44.976,36.7866667 8.86533333,40.0086667 0.504666667,40.7073333 C0.258,42.446 0.109333333,44.2246667 0.044,46.038 C8.53133333,63.4126667 57.2426667,163.874667 57.516,164.693333 C57.8133333,165.584667 57.8126667,165.882 60.412,165.288 L60.412,165.288 Z"></path>
    </g>
</svg>
